icons/fill-new-media-sound-microphone-square.svg

<svg xmlns="http://www.w3.org/2000/svg" width="32px" height="32px" viewBox="0 0 32 32" version="1.1">
    <title>fill-new-media-sound-microphone-square</title>
    <g id="fill-new-media-sound-microphone-square" stroke-width="1" fill-rule="evenodd">
        <path d="M20,2 C22.209139,2 24,3.790861 24,6 L24,7 L20,7 C19.4477153,7 19,7.44771525 19,8 C19,8.55228475 19.4477153,9 20,9 L24,9 L24,12 L20,12 C19.4477153,12 19,12.4477153 19,13 C19,13.5522847 19.4477153,14 20,14 L24,14 L24,17 L20,17 C19.4477153,17 19,17.4477153 19,18 C19,18.5522847 19.4477153,19 20,19 L24,19 L24,20 C24,22.209139 22.209139,24 20,24 L17,24 L17,28 L23,28 C23.5522847,28 24,28.4477153 24,29 C24,29.5522847 23.5522847,30 23,30 L9,30 C8.44771525,30 8,29.5522847 8,29 C8,28.4477153 8.44771525,28 9,28 L15,28 L15,24 L12,24 C9.790861,24 8,22.209139 8,20 L8,19 L12,19 C12.5522847,19 13,18.5522847 13,18 C13,17.4477153 12.5522847,17 12,17 L8,17 L8,14 L12,14 C12.5522847,14 13,13.5522847 13,13 C13,12.4477153 12.5522847,12 12,12 L8,12 L8,9 L12,9 C12.5522847,9 13,8.55228475 13,8 C13,7.44771525 12.5522847,7 12,7 L8,7 L8,6 C8,3.790861 9.790861,2 12,2 L20,2 Z" id="&#36335;&#24452;" fill-rule="nonzero" />
    </g>
</svg>

<svg xmlns="http://www.w3.org/2000/svg" viewBox="0 0 32 32"><path fill="currentColor" d="M20 2a4 4 0 0 1 4 4v1h-4a1 1 0 0 0 0 2h4v3h-4a1 1 0 0 0 0 2h4v3h-4a1 1 0 0 0 0 2h4v1a4 4 0 0 1-4 4h-3v4h6a1 1 0 0 1 0 2H9a1 1 0 0 1 0-2h6v-4h-3a4 4 0 0 1-4-4v-1h4a1 1 0 0 0 0-2H8v-3h4a1 1 0 0 0 0-2H8V9h4a1 1 0 0 0 0-2H8V6a4 4 0 0 1 4-4z"/></svg>
